X:99
T:Maria's Frolick
M:6/8
L:1/8
B:Thompson's Compleat Collection of 200 Favourite Country Dances, vol. 3 (London, 1773)
Z:Transcribed and edited by Flynn Titford-Mock, 2007
Z:abc's:AK/Fiddler's Companion
K:D
A/G/ | F2A AFA | BGB AGF | E2e efd | c3 A2G | F2A AFA | BGB AFA | D2d dec | d3 D2 :|
|: g | fga agf | efg gfe | def Bcd | c3 ABc | dcB AGF | GAB AFA | D2d dec | d3 D3 :|

